icons/outline/marquee-off.svg

<!--
tags: [tag, tracer, html, animation, text, graphic]
version: "1.66"
unicode: "f15d"
-->
<svg
  xmlns="http://www.w3.org/2000/svg"
  width="24"
  height="24"
  viewBox="0 0 24 24"
  fill="none"
  stroke="currentColor"
  stroke-width="2"
  stroke-linecap="round"
  stroke-linejoin="round"
>
  <path d="M4 6c0 -.556 .227 -1.059 .593 -1.421m4.407 -.579h1.5m3 0h1.5m3 0a2 2 0 0 1 2 2m0 3v1.5m0 3v1.5m-.598 4.426a1.993 1.993 0 0 1 -1.402 .574m-3 0h-1.5m-3 0h-1.5m-3 0a2 2 0 0 1 -2 -2m0 -3v-1.5m0 -3v-1.5m-1 -6l18 18" />
</svg>

<!--
tags: [tag, tracer, html, animation, text, graphic]
version: "1.66"
unicode: "f15d"
-->
<svg
  xmlns="http://www.w3.org/2000/svg"
  width="24"
  height="24"
  viewBox="0 0 24 24"
  fill="none"
  stroke="currentColor"
  stroke-width="2"
  stroke-linecap="round"
  stroke-linejoin="round"
>
    <path d="M4 6c0 -.556 .227 -1.059 .593 -1.421M9 4h1.5M13.5 4h1.5M18 4a2 2 0 0 1 2 2M20 9v1.5M20 13.5v1.5M19.402 19.426a1.993 1.993 0 0 1 -1.402 .574M15 20h-1.5M10.5 20h-1.5M6 20a2 2 0 0 1 -2 -2M4 15v-1.5M4 10.5v-1.5M3 3l18 18" />
</svg>
